icons/svg/sport/basejumping.svg

<?xml version="1.0" encoding="UTF-8" standalone="no"?>
<!-- Created with Inkscape (http://www.inkscape.org/) -->

<svg
   xmlns:dc="http://purl.org/dc/elements/1.1/"
   xmlns:cc="http://creativecommons.org/ns#"
   xmlns:rdf="http://www.w3.org/1999/02/22-rdf-syntax-ns#"
   xmlns:svg="http://www.w3.org/2000/svg"
   xmlns="http://www.w3.org/2000/svg"
   xmlns:sodipodi="http://sodipodi.sourceforge.net/DTD/sodipodi-0.dtd"
   xmlns:inkscape="http://www.inkscape.org/namespaces/inkscape"
   version="1.0"
   width="580"
   height="580"
   id="svg2"
   sodipodi:version="0.32"
   inkscape:version="0.91 r"
   sodipodi:docname="basejumping.svg"
   inkscape:output_extension="org.inkscape.output.svg.inkscape">
  <metadata
     id="metadata2975">
    <rdf:RDF>
      <cc:Work
         rdf:about="">
        <dc:format>image/svg+xml</dc:format>
        <dc:type
           rdf:resource="http://purl.org/dc/dcmitype/StillImage" />
        <cc:license
           rdf:resource="http://web.resource.org/cc/PublicDomain" />
        <dc:language>en</dc:language>
        <dc:title />
      </cc:Work>
    </rdf:RDF>
  </metadata>
  <sodipodi:namedview
     inkscape:window-height="1004"
     inkscape:window-width="1920"
     inkscape:pageshadow="2"
     inkscape:pageopacity="0.0"
     guidetolerance="10.0"
     gridtolerance="10.0"
     objecttolerance="10.0"
     borderopacity="1.0"
     bordercolor="#666666"
     pagecolor="#ffffff"
     id="base"
     inkscape:zoom="0.32586207"
     inkscape:cx="921.44116"
     inkscape:cy="475.25401"
     inkscape:window-x="1680"
     inkscape:window-y="0"
     inkscape:current-layer="svg2"
     showgrid="false"
     inkscape:window-maximized="1" />
  <defs
     id="defs4">
    <inkscape:perspective
       sodipodi:type="inkscape:persp3d"
       inkscape:vp_x="0 : 290 : 1"
       inkscape:vp_y="0 : 1000 : 0"
       inkscape:vp_z="580 : 290 : 1"
       inkscape:persp3d-origin="290 : 193.33333 : 1"
       id="perspective10" />
  </defs>
  <g
     id="g1327">
    <path
       d="M 66.275,1.768 C 24.94,1.768 1.704,23.139 1.704,66.804 l 0,450.123 c 0,40.844 20.895,62.229 62.192,62.229 l 452.024,0 c 41.307,0 62.229,-20.315 62.229,-62.229 l 0,-450.123 c 0,-42.601 -20.922,-65.036 -63.521,-65.036 -0.004,0 -448.495,-0.143 -448.353,0 z"
       style="fill:#111111;stroke:#eeeeee;stroke-width:3.40799999"
       id="path1329"
       inkscape:connector-curvature="0" />
  </g>
  <circle
     transform="matrix(24.185257,0,0,24.185257,-6.2693962,13.0788)"
     sodipodi:ry="2.5"
     sodipodi:rx="2.5"
     sodipodi:cy="7.5"
     sodipodi:cx="19.5"
     cx="19.5"
     cy="7.5"
     r="2.5"
     id="circle3"
     style="fill:#ffffff;fill-opacity:1" />
  <path
     style="fill:none;stroke:#ffffff;stroke-width:45.371;stroke-miterlimit:10;stroke-opacity:1;stroke-dasharray:none;stroke-linecap:round"
     inkscape:connector-curvature="0"
     stroke-miterlimit="10"
     d="m 138.84214,303.30189 43.53346,58.04461 c 19.3482,24.18526 45.95199,43.53347 77.39283,48.37051 33.85936,7.25558 72.55576,14.51116 72.55576,14.51116"
     id="path5" />
  <path
     inkscape:connector-curvature="0"
     d="m 339.57977,182.3756 16.92968,-91.903972 c 0,0 -0.0851,-22.197426 -20.86652,-25.417012 -20.78146,-3.219587 -27.504,18.161439 -27.504,18.161439 l -16.92967,96.741025 c -4.83706,26.60377 7.25558,55.62608 29.0223,72.55577 l 43.53346,31.44083 -91.90397,116.08923 -4.83705,29.02231 c 0,0 -24.18525,14.51116 -45.95198,16.92968 -24.18527,2.41852 -38.69642,-4.83705 -55.6261,-14.51116 L 78.378995,378.27619 c 0,0 -23.05759,-7.88053 -31.566478,9.54926 -8.508888,17.42978 7.381225,31.56567 7.381225,31.56567 l 108.833648,60.46314 c 14.51116,12.09263 31.44084,16.92968 53.20757,16.92968 21.76673,0 74.9743,-9.67411 130.60039,-50.78904 l 84.64839,-77.39282 c 33.85934,-31.44083 29.02231,-84.6484 -7.25557,-108.83365 l -70.13725,-45.95199 c -9.67409,-7.25559 -16.92968,-19.34821 -14.51115,-31.44084 z"
     id="path7"
     style="fill:#ffffff;fill-opacity:1"
     sodipodi:nodetypes="cczccccccccczccsccccc" />
</svg>

<svg width="580" height="580" viewBox="0 0 580 580" fill="none" xmlns="http://www.w3.org/2000/svg">
<g clip-path="url(#clip0)">
<path d="M66.2751 1.76815C24.9401 1.76815 1.7041 23.1391 1.7041 66.8041V516.927C1.7041 557.771 22.5991 579.156 63.8961 579.156H515.92C557.227 579.156 578.149 558.841 578.149 516.927V66.8041C578.149 24.2031 557.227 1.76815 514.628 1.76815C514.624 1.76815 66.1331 1.62515 66.2751 1.76815V1.76815Z" fill="#111111" stroke="#EEEEEE" stroke-width="3.408"/>
<path d="M465.343 254.931C498.736 254.931 525.806 227.861 525.806 194.468C525.806 161.075 498.736 134.005 465.343 134.005C431.95 134.005 404.88 161.075 404.88 194.468C404.88 227.861 431.95 254.931 465.343 254.931Z" fill="white"/>
<path d="M138.842 303.302L182.376 361.346C201.724 385.532 228.328 404.88 259.769 409.717C293.628 416.972 332.324 424.228 332.324 424.228" stroke="white" stroke-width="45.371" stroke-miterlimit="10" stroke-linecap="round"/>
<path d="M339.58 182.376L356.509 90.4719C356.509 90.4719 356.424 68.2745 335.643 65.0549C314.861 61.8353 308.139 83.2163 308.139 83.2163L291.209 179.957C286.372 206.561 298.465 235.583 320.231 252.513L363.765 283.954L271.861 400.043L267.024 429.065C267.024 429.065 242.839 443.577 221.072 445.995C196.887 448.414 182.376 441.158 165.446 431.484L78.3789 378.276C78.3789 378.276 55.3213 370.396 46.8124 387.826C38.3035 405.255 54.1937 419.391 54.1937 419.391L163.027 479.854C177.538 491.947 194.468 496.784 216.235 496.784C238.002 496.784 291.209 487.11 346.835 445.995L431.484 368.602C465.343 337.161 460.506 283.954 424.228 259.769L354.091 213.817C344.417 206.561 337.161 194.468 339.58 182.376V182.376Z" fill="white"/>
</g>
<defs>
<clipPath id="clip0">
<path d="M0 0H580V580H0V0Z" fill="white"/>
</clipPath>
</defs>
</svg>
